X: 11429
T: Easter Sunday
R: jig
M: 6/8
K: Dmajor
AF|D3 DdB|AGF G2A|BGG AFD|E3 E2 A/F/|
D3 d2B|AGF G2A|BGB AF/G/A|D3 D:|
|:de|fdB ABd|efg fed|fdB ABd|fee e2 d/e/|
fdB ABd|ef/e/d eag|fdB Ade|fdd d:|

